X:474
T: SIE GLEICHT WOL EINEM ROSENSTOCK
N: E0426
O: Europa, Mitteleuropa, Deutschland
R: Liebes - Lied
M: 3/4
L: 1/8
K: G
G2 | G4D2 | G4c2 | B4A2 | G4
D2 | G4A2 | B4c2 | B2A4 | G2FEF2 | G4
G2 | G4D2 | G4c2 | B4A2 | G4
D2 | G4A2 | B4c2 | B2A4 | G2FEF2 | G4
G2 | B4B2 | A3Bc2 | d4c2 | d4
B2 | B4B2 | A3Bc2 | d4c2 | d4
B2 | B4B2 | B4A2 | G4F2 | G4z2
G4A2 | B4c2 | B2A4 | G2FEF2 | G4

